X: 13953
T: Franc A'Phoill
R: jig
M: 6/8
K: Dmajor
|:A2F B2F|A2G FED|A2F B2F|GFG GFD|
A2F B2F|A2G FED|GAB =cAF|GFG AFD:|
|:dfa afd|dcd ecA|GAB =cAF|GFG AFD|
dfa afa|geg fdA|GAB =cAF|GFG AFD:|
|:d2e d=cA|d2e d=cA|d2e d=cA|GFG AFD|
d2e d=cA|d2e d=cA|GAB =cAF|GFG AFD:|
|:def def|def ecA|def def|GFG AFD|
def def|def ecA|GAB =cAF|GFG AFD:|
|:Ddd D=c=c|DBB D=c=c|Ddd D=c=c|GFG AFD|
Ddd D=c=c|DBB DAA|GAB =cAF|GFG AFD:|

